X: 022150
T: Bonnet (The)
Z: BB
C: Joe Liddy
S: "The Leitrim Fiddler" (Dublin 1981)
N: C sharp in measure 14 sounds bad, but that's what's written!
L: 1/8
M: 4/4
R: reel
Q: 1/4 = 180
K: Gdor
F |: G2 FG DGFG | DGAc fdcA | F2 cf DFcF | dcAG FDFA |
G2 FG DGFG | DGAc fdcf |a2 gf gfdc | AGFG AG G2 :|
dg g2 ag (3agf | dg g2 ag (3agf | df f2 afgf | cfaf gfdc |
dg g2 ag (3agf | d2 ^cA cdfg | a2 gf gfdc | AGFG AG G2 :|
%%%%%%%%%%%%%
